templates/main/source/images/inst.svg

<?xml version="1.0" encoding="utf-8"?>
<svg width="20px" height="20px" viewBox="0 0 20 20" version="1.1" xmlns:xlink="http://www.w3.org/1999/xlink" xmlns="http://www.w3.org/2000/svg">
  <desc>Created with Lunacy</desc>
  <path d="M14.042 0L5.958 0C2.673 0 0 2.673 0 5.959L0 14.042C0 17.327 2.673 20 5.958 20L14.042 20C17.327 20 20 17.327 20 14.042L20 5.959C20 2.673 17.327 0 14.042 0ZM17.988 14.042C17.988 16.222 16.221 17.988 14.042 17.988L5.958 17.988C3.779 17.988 2.012 16.222 2.012 14.042L2.012 5.959C2.012 3.779 3.779 2.012 5.958 2.012L14.042 2.012C16.221 2.012 17.988 3.779 17.988 5.959L17.988 14.042ZM16.4224 4.867C16.4224 4.182 15.8684 3.627 15.1834 3.627C14.4984 3.627 13.9434 4.182 13.9434 4.867C13.9434 5.551 14.4984 6.106 15.1834 6.106C15.8684 6.106 16.4224 5.551 16.4224 4.867ZM4.82715 10.0001C4.82715 7.1481 7.14715 4.8281 10.0001 4.8281C12.8521 4.8281 15.1721 7.1481 15.1721 10.0001C15.1721 12.8521 12.8521 15.1731 10.0001 15.1731C7.14715 15.1731 4.82715 12.8521 4.82715 10.0001ZM6.83915 10.0001C6.83915 11.7461 8.25415 13.1611 10.0001 13.1611C11.7461 13.1611 13.1611 11.7461 13.1611 10.0001C13.1611 8.2551 11.7461 6.8401 10.0001 6.8401C8.25415 6.8401 6.83915 8.2551 6.83915 10.0001Z" id="Combined-Shape" fill="#8C0014" fill-rule="evenodd" stroke="none" />
</svg>

<svg width="20" height="20" viewBox="0 0 20 20" xmlns:xlink="http://www.w3.org/1999/xlink" xmlns="http://www.w3.org/2000/svg"><path d="M14.042 0H5.958A5.965 5.965 0 000 5.959v8.083A5.965 5.965 0 005.958 20h8.084A5.965 5.965 0 0020 14.042V5.959A5.965 5.965 0 0014.042 0zm3.946 14.042a3.946 3.946 0 01-3.946 3.946H5.958a3.946 3.946 0 01-3.946-3.946V5.959a3.947 3.947 0 013.946-3.947h8.084a3.947 3.947 0 013.946 3.947v8.083zm-1.566-9.175a1.239 1.239 0 10-2.477-.002 1.239 1.239 0 002.477.002zM4.827 10A5.178 5.178 0 0110 4.828 5.178 5.178 0 0115.172 10 5.179 5.179 0 0110 15.173 5.179 5.179 0 014.827 10zm2.012 0a3.16 3.16 0 106.322 0 3.16 3.16 0 00-6.322 0z" id="Combined-Shape" fill="#8C0014" fill-rule="evenodd" stroke="none"/></svg>
